X: 10122
T: CAILLEAGAN  A BHAIL MHOIR
T: "Inverness Lasses."
Q: "Sprightly dance."
%R: reel
B: W. Hamilton "Universal Tune-Book" Vol. 1 Glasgow 1844 p.12 #2
S: http://imslp.org/wiki/Hamilton's_Universal_Tune-Book_(Various)
Z: 2016 John Chambers <jc:trillian.mit.edu>
N: Repeat signs added to agree with the two endings.
M: C|
L: 1/8
K: F
% - - - - - - - - - - - - - - - - - - - - - - - - -
|:\
fdcB ABTc2 | fdcB ABca |\
fdcB ABTc2 | BAGF ECEG |\
fdcB ABTc2 | fdcB ABca |\
f>edf cfAc |
BAGF ECEG |]\
TFEFd cFTA2 | FEFd cFAd |\
[1 TFEFd cFTA2 | BAGF ECEG :|\
[2 fedb caAc | BAGF ECEG |]
% - - - - - - - - - - - - - - - - - - - - - - - - -

%%sep 1 1 500
%%sep 1 1 500

